X:1
T:Responses
T:Edited by JAY YOUNG
T:(1572-1656)
T:© Jay Young 2014
T:Responses
T:© Jay Young 2014
T:© Jay Young 2014
T:© Jay Young 2014
T:© Jay Young 2014
T:© Jay Young 2014
T:© Jay Young 2014
C:Edited by
C:JAY YOUNG
Z:© Jay Young 2014
%%score [ ( 1 2 3 ) 4 ( 5 6 7 ) ]
L:1/8
M:4/4
K:D
V:1 treble nm="Soprano" snm="S."
V:2 treble 
V:3 treble 
V:4 treble nm="Alto" snm="A."
V:5 bass nm="Bass" snm="B."
V:6 bass 
V:7 bass 
V:1
 z8 || [EB]2 [EB]2 [^DB]8 [EB]4 | =c4 B6 (E2 A4- | A4) (^G2 F2 G8) || z14 || z4 B4 B6 c2 | %6
w: |And our mouth shall|shew forth thy _|praise praise _ _||O Lord, make|
 ^d2 f2 (e8 d4) | [Ee]8 || [EB]2 [EB]2 [EB]8 [EB]2 [EB]2 | [EB]4 [EB]2 [EB]2 [EB]4 [Ec]4 | %10
w: haste to help help|us.|Glo- ry be to the|Fath- er and to the|
 d8 z4 B4 B4 B4 | B8 B8 | [EB]8 || [^GB]2 [GB]2 [GB]8 [EG]4 | A4 B4 e8 | d4 c4 B8 | %16
w: Son: and to the|Ho- ly|Ghost;|As it was in|the be- gin-|ning and is|
 A8 A4 d6 c2 (B2 A2) | [B,^G]8 [EB]4 [Ee]6 [FA]2 [Dd]4 | c4 B6 A2 c4 | B4 A8 ^G4 | A4 z4 z4 A4- | %21
w: now, and ev- er shall *|be, and ev- er shall|be, world with- out|end, A- A-|men. Praise|
 e8 d8 | (c8 B8) | A8 z8 | E4 e6 (d2 B4) | [A,c]16 || z8 || B4 e8 e4 | ^d16 || z16 || %30
w: Praise ye|the Lord,|Lord,|praise ye the _|Lord.||And with thy|spir't.||
 B6 B2 B4 B2 B2 | B8 B8 | [EB]6 [EB]2 [EB]4 [EB]2 [EB]2 | [Ec]8 [EB]8 | [=Ge]6 [Fd]2 [Ec]4 [DB]4- | %35
w: Lord, have mer- cy up-|on us.|Christ, have mer- cy up-|on us.|Lord, have mer- cy|
 B2 A2 (A8 ^G4) | [A,A]8 || A16 | [FA]8 [EA]8 || z8 || z4 [EB]4 | B4 B4 B4 A4 | %42
w: _ up- on on|us.|Our~Father...from~Evil.|A- men.||And|grant us thy sal-|
 [EA]6 [FA]2 [EA]8 || z8 | z4 [Ac]4 [Ac]2 [Ac]2 [Ac]2 [Ac]2 | [Ad]4 [Ac]4 [GB]6 [GB]2 | %46
w: va- ti- on.||And mer- cy- ful- ly|hear us when we|
 B6 e2 (d2 c2 B2 A2) | [E^G]8 || z10 || z4 [Ec]4 | c4 c4 c6 d2 | e2 d2 (d8 c4) | [Fd]8 || z8 | %54
w: call up- on _ on _|thee.||And|make thy cho- sen|peo- ple joy- joy-|ful.||
 z4 [Dd]4 [Ec]4 [DB]2 [FB]2 | [EB]4 [C^A]4 [FB]8 || z8 || B4 B2 B2 | B2 B2 =c4 | B4 e4 d2 d2 =c4- | %60
w: And bless thine in-|he- ri- tance.|||||
 c4 B4 =c4 c4 B6 B2 | B6 B2 B8- | [B,B]8 || z8 || z4 B4 | B4 B2 B2 =c4 B4 | A6 A2 ^G8 || z8 || %68
w: * * * but on- ly|thou, O God.|_||||||
"^I." [FA]8 [EA]8 ||"^II." [Ec]8 [Fd]8 ||"^III.a" [Ad]8 [Ac]8 ||"^III.b*" (E6 F2 | %72
w: A- men.|A- men.|A- men.|A- *|
 ^G2 A2 B6) A2 =c4- |"^rit." c4"^*(from the Magnificat of Tomkins' Second Service)" (B2 A2 B8) |] %74
w: * * men, A- *|men. * * men.|
V:2
 x8 || x16 | E4 B,4 E8 | E16 || x14 || x4 E4 E2 (F2 G4) | F2 (A2 G4) F8 | x8 || x16 | x16 | %10
 F8 x4 E4 D2 E2 F4- | F2 E2 E8 ^D4 | x8 || x16 | E2 (F2 ^G4) A6 =G2 | F6 (E2 D2 C2 B,4) | %16
 E8 F4 D6 E2 F4 | x24 | E4 D4 C4 A,4 | D6 (C2 B,2 A,2 B,4) | x16 | A4 G8 F4- | F4 E6 (D2 B,2) (C2 | %23
 D2) (C2 A,2 B,2 C2 D2 E2 D2) | C8 B,8 | x16 || x8 || x16 | x16 || x16 || G6 G2 F2 E2 E4- | %31
 E4 ^D4 E8 | x16 | x16 | x16 | D4 C4 B,8 | x8 || x16 | x16 || x8 || x8 | F4 G4 F6 D2 | x16 || x8 | %44
 x16 | x16 | F4 E8 ^D4 | x8 || x10 || x8 | E4 E4 E2 E2 A4- | A4 A4 A8 | x8 || x8 | x16 | x16 || %56
 x8 || x8 | x8 | x16 | x24 | x16 | x8 || x8 || x8 | x16 | x16 || x8 || x16 || x16 || x16 || %71
 =C2 D2 E4- | E4 E4 E8 | E16 |] %74
V:3
 x8 || x16 | x16 | x16 || x14 || x16 | x16 | x8 || x16 | x16 | x24 | x16 | x8 || x16 | x16 | x16 | %16
w: ||||||||||||||||
 x24 | x24 | x16 | x16 | A,4 z4 z8 | x16 | x16 | x16 | x16 | x16 || x8 || G4 E8 B,4 | B,16 || %29
w: |||||||||||||
 x16 || x16 | x16 | x16 | x16 | x16 | x16 | x8 || x16 | x16 || x8 || x8 | x16 | x16 || x8 | x16 | %45
w: ||||||||||||||||
 x16 | x16 | x8 || x10 || x8 | x16 | x16 | x8 || x8 | x16 | x16 || x8 || E4 E2 E2 | E2 E2 E4 | %59
w: ||||||||||||Be- cause there|is non o-|
 E4 E4 G4 G4 | G8 G4 z2 E2 B,6 B,2 | B,6 B,2 B,8- | x8 || x8 || z4 E4 | E4 E2 E2 E4 B,4 | %66
w: ther that fight- eth|for us, * * *||||And|take not thy Ho- ly|
 =C6 C2 B,8 || x8 || x16 || x16 || x16 || x8 | x16 | x16 |] %74
w: Spir't from us.||||||||
V:4
 z8 || G2 G2 F8 G4 | A4 E4 E8 | E16 || z14 || z4 =G4 E4 B,4 | B,4 E4 B,8 | B,8 || ^G6 G2 G4 G2 G2 | %9
w: |And our mouth shall|shew forth thy|praise||O Lord, make|haste to help|us.|Glo- ry be to the|
 ^G4 G2 G2 G4 A4 | A8 z4 =G4 F4 D4 | B,8 B,8 | B,8 || E2 E2 E8 E4 | E4 D4 C8 | %15
w: Fath- er and to the|Son: and to the|Ho- ly|Ghost;|As it was in|the be- gin-|
 D4 (A,4 F4) (E2 D2) | C8 D4 F6 E2 ^D4 | E8 ^G4 A6 A2 (F2 G2) | A2 (=G2 F4) E6 E2 | %19
w: ning and _ is _|now, and ev- er shall|be, and ev- er shall _|be, world _ with- out|
 D2 (E2 F4 E6 D2) | C4 z4 z8 | z16 | A8 G8 | F8 E4 (B4- | B2 A2) A8 ^G4 | A16 || z8 || E4 G8 G4 | %28
w: end, A- * * *|men.||Praise ye|the Lord, praise|_ _ ye the|Lord.||And with thy|
 F16 || z16 || E6 E2 F4 G2 G2 | F8 E8 | ^G6 G2 G4 G2 G2 | A8 ^G8 | E6 F2 (A2 =G2) F2 F2 | %35
w: spir't.||Lord, have mer- cy up-|on us.|Christ, have mer- cy up-|on us.|Lord, have mer- * cy up-|
 (E6 F2 =G2 F2 E2 D2) | C8 || A16 | D8 C8 || z8 || z4 =G4 | F4 E4 D4 F4 | E6 D2 C8 || z8 | %44
w: on _ _ _ _ _|us.|Our~Father...from~Evil.|A- men.||And|grant us thy sal-|va- ti- on.||
 z4 E4 E2 E2 E2 E2 | F4 E4 =E6 E2 | F4 G4 F8 | E8 || z10 || z4 A4 | A4 A4 A4 F4 | E4 F4 E8 | D8 || %53
w: And mer- cy- ful- ly|hear us when we|call up- on|thee.||And|make thy cho- sen|peo- ple joy-|ful.|
 z8 | z4 F4 A4 F2 F2 | G4 (F2 E2) ^D8 || z8 || G4 G2 G2 | G2 G2 A4 | G4 =C4 D4 E4 | %60
w: |And bless thine in-|he- ri- * tance.|||||
 D8 E4 E4 ^D6 D2 | E4 E4- E4 ^D2 C2 | ^D8 || z8 || z4 =G4 | G4 G2 G2 A4 E4 | E6 E2 E8 || z8 || %68
w: ||||||||
 D8 C8 || A8 A8 || F8 E8 || (=C2 D2 E4- | E4) E4 E8 | E16 |] %74
w: A- men.|A- men.|A- men.|A- * *|* men, A-|men.|
V:5
 B,8 || [E,B,]2 [E,B,]2 [B,,B,]8 [E,B,]4 | [A,,A,]4 [^G,,B,]4 [A,,=C]8 | [E,B,]16 || %4
w: O~Lord,~open~~~~~~~~~~thou~our~lips.|And our mouth shall|shew forth thy|praise|
 ^G,2 B,2 B,2 C2 B,2 B,2 B,2 || z4 B,4 =G,4 E,4 | F,4 (G,2 E,2) (F,6 A,2) | [E,^G,]8 || %8
w: O God, make speed to save us.|O Lord, *|haste * to help *|us.|
 B,6 B,2 B,4 B,2 B,2 | [E,B,]4 [E,B,]2 [E,B,]2 [E,B,]4 [A,,A,]4 | %10
w: Glo- ry * to the|Fath- er and to the|
 [D,A,]8 z4 E,4 [B,,F,]6 [B,,D,]2 | E,2 (F,2 G,4) F,6 A,2 | [E,^G,]8 || B,2 B,2 B,8 E,4 | %14
w: Son: and to the|Ho- ly, _ Ho- ly|Ghost;|As it was in|
 A,4 D,4 A,8 | D,4 A,8 ^G,4 | [A,,A,]8 [D,A,]4 [B,,B,]6 [B,,B,]2 [B,,B,]4 | %17
w: the be- gin-|ning and is|now, and ev- er shall|
 [E,B,]8 [E,B,]4 [C,A,]6 [D,A,]2 [B,,B,]4 | [A,,E,]4 [B,,B,]4 [C,E,]8 | [D,F,]8 [E,B,]4 E,4 | %20
w: be, and ev- er shall|be, world with-|out end, A-|
 A,,4 A,4 =G,4 F,4 | C4 B,6 A,2 (F,2 ^G,2) | (A,2 ^G,2 E,2 F,2) =G,4 D4- | D4 C8 B,4 | %24
w: men. Praise Praise ye|the Lord, praise ye the|the _ _ _ Lord, praise|_ ye the|
 E4 E4 E4 E4 | [A,,E]16 || B,8 || E,4 E,8 E,4 | B,,16 || B,16 || %30
w: Lord, praise ye the|Lord.|The~Lord~be~with~you.|And with thy|spir't.|Let~us~pray.|
 [E,B,]6 [E,B,]2 [^D,B,]4 [E,B,]2 [E,B,]2 | [B,,B,]8 [E,^G,]8 | %32
w: Lord, have mer- cy up-|on us.|
 [E,B,]6 [E,B,]2 [E,B,]4 [E,B,]2 [E,B,]2 | [A,,A,]8 [E,B,]8 | B,6 B,2 E,4 F,4 | %35
w: Christ, have mer- cy up-|on us.|Lord, have mer- cy|
 (^G,4 A,4 B,4) E,4 | [A,,E,]8 || A,16 | [D,A,]8 [A,,A,]8 || A,4 F,2 ^G,2 || z4 [E,B,]4 | %41
w: up- * * on|us.|||O~Lord,~show~thy~mercy~up on us.|And|
 [^D,B,]4 [E,B,]4 [B,,B,]4 [=D,F,]4 | [C,A,]6 [D,A,]2 [A,,A,]8 || A,4 F,2 ^G,2 | %44
w: grant us thy sal-|va- ti- on.|O~Lord,~save the Queen.|
 z4 [A,,A,]4 [A,,A,]2 [A,,A,]2 [A,,A,]2 [A,,A,]2 | [D,D]4 [A,,C]4 [E,B,]6 [E,B,]2 | %46
w: And mer- cy- ful- ly|hear us when we|
 B,8 C4 (^D2 B,2) | [E,B,]8 || A,4 A,2 F,2 F,2 || z4 [A,,A,]4 | A,6 A,2 A,6 A,2 | %51
w: call up- on _|thee.|Endue~thy~ministers~with right- eous- ness|||
 [C,A,]4 [D,A,]4 [A,,A,]8 | [D,A,]8 || A,4 A,2 F,2 | z4 [B,,B,]4 [C,A,]4 [D,D]2 [D,D]2 | %55
w: ||O~Lord,~save~thy peo- ple.||
 C6 C2 B,8 || A,4 F,2 ^G,2 || [E,B,]4 [E,B,]2 [E,B,]2 | [E,B,]2 [E,B,]2 [A,,A,]4 | %59
w: |Give~peace~in~our~time, O Lord.|||
 E,4 =C,4 B,,4 C,4 | =G,,8 =C,4 A,,4 B,,6 B,,2 | G,,6 A,,2 B,,8- | B,,8 || A,4 F,2 ^G,2 || z4 B,4 | %65
w: |for us, * * *|thou, O God.|_|O~God,~~~~~~~~~~~~~~~~~make~clean~our~hearts~with in us.||
 B,4 B,2 B,2 A,4 B,4 | E,6 E,2 [E,E,]8 || A,8 || [D,A,]8 [A,,A,]8 || [A,,A,]8 [D,A,]8 || %70
w: ||THE~COLLECTS|A- men.|A- men.|
 [D,A,]8 [G,,A,]8 || (A,2 B,2 =C2 D2 | B,2 A,2 ^G,2 F,2 E,4) A,4- | A,4 (^G,2 F,2 G,8) |] %74
w: A- men.|A- * * *|men, * * A- men, A-|men. * * men.|
V:6
 x8 || x16 | x16 | x16 || x14 || x4 E,4 E,6 E,2 | B,,6 B,,2 B,,8 | x8 || E,2 E,2 E,8 E,2 E,2 | %9
 x16 | x24 | G,,6 (A,,2 B,,8) | x8 || E,2 E,2 E,4 E,6 D,2 | (C,2 D,2) B,,4 A,,8 | %15
 B,,4 C,4 (D,4 E,4) | x24 | x24 | x16 | x16 | x16 | E,6 (D,2 B,,2) (C,2 D,2) (C,2 | %22
 A,,2 B,,2 C,2 D,2 E,2 F,2 G,2 F,2 | D,2 E,2 F,2 ^G,2 A,4 G,4) | A,4 A,,4 E,6 E,2 | x16 || x8 || %27
 x16 | x16 || x16 || x16 | x16 | x16 | x16 | E,6 B,,2 C,4 D,2 D,2 | E,16 | x8 || x16 | x16 || x8 || %40
 x8 | x16 | x16 || x8 | x16 | x16 | ^D,4 E,4 B,,8 | x8 || x10 || x8 | A,,4 A,,4 A,,6 B,,2 | x16 | %52
 x8 || x8 | x16 | E,4 F,4 B,,8 || x8 || x8 | x8 | x16 | x24 | x16 | x8 || x8 || x8 | x16 | x16 || %67
 x8 || x16 || x16 || x16 || A,8 | E,6 D,2 =C,4 A,,4 | E,16 |] %74
V:7
 x8 || x16 | x16 | x16 || x14 || x16 | x16 | x8 || x16 | x16 | x24 | x16 | x8 || x16 | x16 | x16 | %16
w: ||||||||||||||||
 x24 | x24 | x16 | x16 | E,4 z4 E4 D4 | x16 | x16 | x16 | x16 | x16 || x8 || B,4 B,8 E,4 | F,16 || %29
w: |||||||||||||
 x16 || x16 | x16 | x16 | x16 | x16 | x16 | x8 || x16 | x16 || x8 || x8 | x16 | x16 || x8 | x16 | %45
w: ||||||||||||||||
 x16 | x16 | x8 || x10 || x8 | x16 | x16 | x8 || x8 | x16 | x16 || x8 || x8 | x8 | %59
w: ||||||||||||||
 B,4 E,2 G,4 G,2 G,4- | G,8 G,4 A,4 F,6 F,2 | E,2 F,2 G,4- G,4 F,2 E,2 | F,8 || x8 || z4 E,4 | %65
w: ther that fight- eth for|_ us, but on- ly|thou, O _ _ _ _|God.|||
 E,4 E,2 E,2 A,,4 ^G,,4 | A,,6 A,,2 x8 || x8 || x16 || x16 || x16 || x8 | x16 | x16 |] %74
w: |||||||||

